X:535
T: Feng xiangcha
N: C1953
O: China,Jiangxi Duchang
S: IV, 191]
R: Xiaodiao, Chage]
M: 2/4
L: 1/16
K: C
c2cAg2ge | d8 |
g4A4 | c2A2g2e2 | d8 |
A3GA2d2 | A4A4 |
e4A3d | A3dA3d | A3GA3d | A4A4 |
d4c2A2 | G4A2E2 | G6A2 |
d4c2A2 | G4A2E2 | G8

@@@ Tune index: 7090
